src/svg/uf109-laptop.svg

<!-- Generated by IcoMoon.io -->
<svg version="1.1" xmlns="http://www.w3.org/2000/svg" width="34" height="32" viewBox="0 0 34 32">
<path d="M7.429 22.857c-1.571 0-2.857-1.286-2.857-2.857v-12.571c0-1.571 1.286-2.857 2.857-2.857h19.429c1.571 0 2.857 1.286 2.857 2.857v12.571c0 1.571-1.286 2.857-2.857 2.857h-19.429zM6.857 7.429v12.571c0 0.304 0.268 0.571 0.571 0.571h19.429c0.304 0 0.571-0.268 0.571-0.571v-12.571c0-0.304-0.268-0.571-0.571-0.571h-19.429c-0.304 0-0.571 0.268-0.571 0.571zM31.429 24h2.857v1.714c0 0.946-1.286 1.714-2.857 1.714h-28.571c-1.571 0-2.857-0.768-2.857-1.714v-1.714h31.429zM18.571 25.714c0.161 0 0.286-0.125 0.286-0.286s-0.125-0.286-0.286-0.286h-2.857c-0.161 0-0.286 0.125-0.286 0.286s0.125 0.286 0.286 0.286h2.857z"></path>
</svg>

<svg xmlns="http://www.w3.org/2000/svg" width="34" height="32"><path d="M7.429 22.857A2.866 2.866 0 0 1 4.572 20V7.429a2.866 2.866 0 0 1 2.857-2.857h19.429a2.866 2.866 0 0 1 2.857 2.857V20a2.866 2.866 0 0 1-2.857 2.857H7.429zM6.857 7.429V20c0 .304.268.571.571.571h19.429a.587.587 0 0 0 .571-.571V7.429a.587.587 0 0 0-.571-.571H7.428a.587.587 0 0 0-.571.571zM31.429 24h2.857v1.714c0 .946-1.286 1.714-2.857 1.714H2.858c-1.571 0-2.857-.768-2.857-1.714V24H31.43zm-12.858 1.714c.161 0 .286-.125.286-.286s-.125-.286-.286-.286h-2.857c-.161 0-.286.125-.286.286s.125.286.286.286h2.857z"/></svg>
